contributed-vectors/mysejahtera.svg

<svg xmlns="http://www.w3.org/2000/svg" width="192" height="192" fill="none"><g clip-path="url(#a)"><g clip-path="url(#b)"><path fill="#CCDEFF" d="M168.62 80.4c-2.68 13.08-8.6 21.63-16.4 32.8-6.64 9.54-11.57 14.48-41.6 45.1-3.09 3.15-11.46 11.7-14.39 14.7V44.4c1.36-2.68 3.59-6.36 7.07-10.07 2.8-2.99 14.37-15.32 30.93-14 18.36 1.47 28.44 18.6 29.96 21.18.13.24.44.79.84 1.5 8.18 15.03 5.09 30.08 3.59 37.39Z"/><path fill="#9ABEFF" d="M96.23 44.18v128.59c-2.94-3.01-11.31-11.55-14.4-14.7-30.02-30.63-34.94-35.56-41.59-45.09-7.8-11.18-13.72-19.73-16.41-32.8-1.5-7.32-4.58-22.37 3.61-37.4.38-.71.69-1.26.84-1.5 1.51-2.58 11.6-19.7 29.95-21.18 16.55-1.32 28.14 11.01 30.94 14a43.91 43.91 0 0 1 7.06 10.08Z"/></g></g><defs><clipPath id="a"><path fill="#fff" d="M0 0h192v192H0z"/></clipPath><clipPath id="b"><path fill="#fff" d="M22 20h148.46v153H22z"/></clipPath></defs></svg>

<svg width="192" height="192" viewBox="0 0 192 192" fill="none" xmlns="http://www.w3.org/2000/svg">
<g clip-path="url(#clip0)">
<g clip-path="url(#clip1)">
<path d="M168.62 80.4C165.94 93.48 160.02 102.03 152.22 113.2C145.58 122.74 140.65 127.68 110.62 158.3C107.53 161.45 99.16 170 96.23 173V44.4C97.59 41.72 99.82 38.04 103.3 34.33C106.1 31.34 117.67 19.01 134.23 20.33C152.59 21.8 162.67 38.93 164.19 41.51C164.32 41.75 164.63 42.3 165.03 43.01C173.21 58.04 170.12 73.09 168.62 80.4Z" fill="#CCDEFF"/>
<path d="M96.23 44.18V172.77C93.29 169.76 84.92 161.22 81.83 158.07C51.81 127.44 46.89 122.51 40.24 112.98C32.44 101.8 26.52 93.25 23.83 80.18C22.33 72.86 19.25 57.81 27.44 42.78C27.82 42.07 28.13 41.52 28.28 41.28C29.79 38.7 39.88 21.58 58.23 20.1C74.78 18.78 86.37 31.11 89.17 34.1C92.65 37.81 94.86 41.5 96.23 44.18Z" fill="#9ABEFF"/>
</g>
</g>
<defs>
<clipPath id="clip0">
<rect width="192" height="192" fill="white"/>
</clipPath>
<clipPath id="clip1">
<rect width="148.46" height="153" fill="white" transform="translate(22 20)"/>
</clipPath>
</defs>
</svg>
